X: 41737
T: Valse Des Bébés
R: waltz
M: 3/4
K: Amajor
|:"A"C6|"E"D4 F2|"A"E2 c4-|c2 (3AcA C2|"E"D2 B4-|B2 E2 D2|"A"C2 A4-|A2 C2 D2|
"A" C6|"E"D4 F2|"A"E2 c4-|c2 (3AcA C2|"E"D2 B4|F4 G2|"A"A2 Acec|1 A2 C2 D2:|2 A2 z2 e2||
|:"A"f2-fe cA|E2-EA AF|"E" G6-|G4 e2|f2-fe dB|G2-GE FE|"A"c6-|c2 z2 e2|
"A"f2-fe cA|E2-EA AF|"E" G6-|G4 e2|g2f2 (3efe|d2 F2G2|"A"A2 Ac ec|1 A2 z2 e2:|2 A2 z4||

